src/icons/arrow-down-c.svg

<?xml version="1.0" encoding="UTF-8"?>
<svg width="512px" height="512px" viewBox="0 0 512 512" version="1.1" xmlns="http://www.w3.org/2000/svg" xmlns:xlink="http://www.w3.org/1999/xlink">
    <!-- Generator: Sketch 62 (91390) - https://sketch.com -->
    <title>arrow-down-c</title>
    <desc>Created with Sketch.</desc>
    <g id="arrow-down-c" stroke="none" stroke-width="1" fill="none" fill-rule="evenodd">
        <path d="M372,310.15 L276.5,401.35 C271.2,406.85 264,409.55 256.1,409.55 C248.2,409.55 241.1,406.85 235.7,401.35 L140,310.15 C128.6,299.35 128.6,281.65 140,270.85 C151.4,260.05 169.7,260.05 181.1,270.85 L227,314.65 L227,117.25 C226.8,101.95 239.8,89.45 256,89.45 C272.1,89.45 285.1,101.95 285.1,117.25 L285.1,314.65 L331,270.85 C342.4,260.05 360.7,260.05 372.1,270.85 C383.4,281.65 383.4,299.25 372,310.15 Z" id="Path" fill="#000000" fill-rule="nonzero"></path>
    </g>
</svg>

<svg xmlns="http://www.w3.org/2000/svg" width="512" height="512" viewBox="0 0 512 512">
    <path d="M372 310.15l-95.5 91.2c-5.3 5.5-12.5 8.2-20.4 8.2-7.9 0-15-2.7-20.4-8.2l-95.7-91.2c-11.4-10.8-11.4-28.5 0-39.3 11.4-10.8 29.7-10.8 41.1 0l45.9 43.8v-197.4c-.2-15.3 12.8-27.8 29-27.8 16.1 0 29.1 12.5 29.1 27.8v197.4l45.9-43.8c11.4-10.8 29.7-10.8 41.1 0 11.3 10.8 11.3 28.4-.1 39.3z"/>
</svg>
